X:1
T:The Donside Emigrant's Farewell
M:9/8
L:1/4
K:C
 D- E/2| F- E/2 D3/2 E- C/2| D3/2 A3/2 G- B/2| A3/2 C- D/2 E3/2| D3/2- D z/2 D- E/2|\
 F3/2 G3/2 A- G/2| A3/2 d3/2 d- B/2| c- A/2| G- A/2 c- B/2| A3/2- A z/2 D E/2|\
 F3/2 G3/2 A- G/2| A3/2 d3/2| d- B/2| c- A/2 G- A/2 c- B/2| A3/2- A z/2 A G/2|\
 F- E/2 D3/2 G- E/2| C3/2 D3/2 E- G/2| A3/2 G- E/2 A3/2| D3/2- D z/2||\
